X:1
T:Dum esset summus Pontifex - Marenzio
T:#
%%score [ 1 2 3 4 ]
L:1/8
Q:1/4=200
M:none
K:F
V:1 treble nm="Soprano" snm="S"
V:2 treble nm="Alto" snm="A"
V:3 treble-8 nm="Tenor" snm="T"
V:4 bass nm="Bass" snm="B"
V:1
"^Dum esset summus Pontifex""^Luca Marenzio\n(1556-1599)" z16 | z16 | z16 | c8 B8 | A8 G8 | %5
w: |||Dum es-|set sum-|
 F4 c8 =B4 |[M:4/2] c4 C4 G8 | A4 =B4 c6 G2 | (A6 =B2 c8) | z8 c8 | _B8 A8 | G8 F4 B4- | B4 A4 D8 | %13
w: mus Pon- ti-|fex, ter- re-|na non me- tu-|it, * *|dum|es- set|sum- mus Pon\-|* ti- fex,|
 z4 F4 c8 | d4 D4 A6 A2 | (B4 A2 G2 A4) F4 | c8 d4 D4 | F6 F2 F4 D4 | G8 F4 D4 | A6 A2 (B6 AG | %20
w: ter- re-|na non me- tu-|it, * * * ter-|re- na non|me- tu- it, ter-|re- na non|me- tu- it, * *|
 F2 G2 A6 GF G2 A2 | B2 A2 G2 F2 E4) A4 | G12 G4 | G8 z4 G4 | G4 G4 c8- | c4 A4 c8 | (d6 c2 B8) | %27
w: |* * * * * non|me- tu-|it, sed|ad coe- le\-|* sti- a|re\- * *|
 A16 | z8 z4 B4- | B4 G4 (A2 G2 A2 B2 | c2 B2 A2 G2 A8) | G4 c4 =B4 c4 | z16 | z16 | z8 z4 c4- | %35
w: gna|glo\-|* ri- o\- * * *||sus mi- gra- vit,|||glo-|
 c4 d4 (B2 A2 B2 c2 | d2 c2 B2 A2 B8) | A4 A4 (A8 | G12 F2 E2 | D2 E2 F2 D2) E8 | z8 c8 | B8 A8 | %42
w: * ri- o\- * * *||sus mi- gra\-||* * * * vit.|Dum|es- set|
 G8 F4 c4- | c4 =B4 c4 C4 | G8 A4 F4 | c6 c2 c8 | z4 G4 G6 G2 | E4 A4 (G6 A2 | B8) A4 A4 | G12 G4 | %50
w: sum- mus Pon\-|* ti- fex, ter-|re- na non|me- tu- it,|non me- tu-|it, ter- re\- *|* na non|me- tu-|
 G8 z4 E4 | E4 E4 A8- | A4 G4 (F4 D4- | D2 E2 F2 G2 A8- | A8) D8 | z4 B8 G4 | %56
w: it, sed|ad coe- le-|sti- a re\- *||* gna|glo- ri-|
 (A2 G2 A2 B2 c2 B2 A2 G2 | A8) (G6 F2) | (E2 F2 G2 E2 F8) | z16 | z4 G8 G4 | %61
w: o\- * * * * * * *|* sus *|||glo- ri-|
 (F2 E2 F2 G2 A2 G2 F2 E2 | F8) G8 | z4 G8 A4 | (B2 A2 B2 c2 d2 c2 B2 A2 | B8)[Q:1/4=196] A8 | %66
w: o\- * * * * * * *|* sus,|glo- ri-|o\- * * * * * * *|* sus|
[Q:1/4=192] z4[Q:1/4=188] F4[Q:1/4=184] (F8- | %67
w: mi- gra\-|
[Q:1/4=179] F4[Q:1/4=177] E2[Q:1/4=176] D2)[Q:1/4=172] E8- |[Q:1/4=170] E16 |] %69
w: * * * vit.||
V:2
 z16 | z16 | C8 B,8 | A,8 G,8 | F,4 F8 E4 | F4 C4 G8 |[M:4/2] A4 A,4 C6 G,2 | (D2 E2 F2 D2 G8) | %8
w: ||Dum es-|set sum-|mus Pon- ti-|fex, ter- re-|na non me- tu-|it, * * * *|
 z8 G8 | F8 E8 | D8 C4 F4- | F4 E4 F8 | z4 C4 G8 | A4 D4 E6 E2 | (F6 ED C8) | z8 F8 | _E8 D8 | %17
w: dum|es- set|sum- mus Pon\-|* ti- fex,|ter- re-|na non me- tu-|it, * * *|dum|es- set|
 C8 B,4 F4- | F4 =E4 F8 | z4 C4 G8 | A4 F4 E6 E2 | G8 z4 F4 | (E4 D2 C2 D6) D2 | E16 | %24
w: sum- mus Pon\-|* ti- fex,|ter- re-|na non me- tu-|it, non|me\- * * * tu-|it,|
 z4 C4 C4 C4 | F12 E4 | D4 (B,6 C2 D2 E2 | F16) | D8 z4 D4- | D4 E4 (F2 E2 F2 G2 | %30
w: se ad coe-|le- sti-|a re\- * * *||gna glo\-|* ri- o\- * * *|
 A2 G2 F2 E2 F8) | E4 E4 D4 E4 | z16 | z16 | z8 z4 C4- | C4 A,4 (D2 C2 D2 E2 | F2 E2 D2 C2 D8) | %37
w: |sus mi- gra- vit,|||glo\-|* ri- o\- * * *||
 C4 C4 (F8- | F4 E2 D2 E8) | F8 C8 | B,8 A,8 | G,8 F,4 F4- | F4 E4 F4 C4 | G8 A4 A,4 | E6 E2 F8 | %45
w: sus mi- gra\-||vit. Dum|es- set|sum- mus Pon\-|* ti- fex, ter-|re- na non|me- tu- it,|
 z4 C4 G8 | A4 E4 D6 D2 | (A6 GF E4) E4 | G8 E4 F4 | D12 D4 | (E6 F2 G8- | G8) z8 | z16 | %53
w: ter- re-|na non me- tu-|it, * * * ter-|re- na non|me- tu-|it, * *|||
 z8 z4 C4- | C4 A,4 (B,2 A,2 B,2 C2 | D2 C2 B,2 A,2 B,8) | A,8 z4 F4 | F8 E8 | z4 C4 C4 C4 | %59
w: glo\-|* ri- o\- * * *||sus mi-|gra- vit,|sed ad coe-|
 F12 E4 | D4 (G,6 A,2 B,2 C2 | D4) A,4 D8- | D4 D4 _E8- | E16 | F8 z4 F4 | F16 | C16- | C16 | %68
w: le- sti-|a re\- * * *|* gna glo\-|* ri- o\-||sus mi-|gra-|vit.||
 C16 |] %69
w: |
V:3
 z16 | c8 B8 | A8 G8 | F4 f8 e4 | f4 F4 c8 | d4 A4 d6 G2 |[M:4/2][K:treble-8] c8 z4 G4 | F8 E8 | %8
w: |Dum es-|set sum-|mus Pon- ti-|fex, ter- re-|na non me- tu-|it, dum|es- set|
 D8 C4 c4- | c4 =B4 c8 | z8 z4 F4 | c8 d4 d4 | c6 c2 (B6 AG | F2 G2 A2 F2 G4) c4 | B8 A8 | %15
w: sum- mus Pon\-|* ti- fex,|ter-|re- na non|me- tu- it, * *|* * * * * dum|es- set|
 G8 F4 B4- | B4 A4 B8 | z8 z4 B4 | c8 d4 B4 | A6 A2 G8 | z4 F4 c8 | d8 c4 c4- | (c4 =B2 A2 B6) B2 | %23
w: sum- mus Pon\-|* ti- fex,|ter-|re- na non|me- tu- it,|ter- re-|na non me\-|* * * * tu-|
 c16- | c8 z8 | z16 | z16 | z4 c8 d4 | (B2 A2 B2 c2 d2 c2 B2 A2 | B8) c4 c4 | c16 | c4 G4 G4 G4 | %32
w: it,||||glo- ri-|o\- * * * * * * *|* sus mi-|gra-|vit, sed ad coe-|
 c12 A4 | c8 (d6 c2) | B8 A8 | z8 z4 B4 | B16 | (F2 G2 A2 B2 c8) | z8 c8 | B8 A8 | G8 F4 f4- | %41
w: le- sti-|a re\- *|* gna|mi-|gra-|vit. * * * *|Dum|es- set|sum- mus Pon\-|
 f4 e4 f4 F4 | c8 d4 A4 | d6 d2 f8 | z4 c8 B4- | B4 A4 G8 | F4 c8 =B4 | c4 F4 c8 | d8 c4 (c4- | %49
w: * ti- fex, ter-|re- na non|me- tu- it,|dum es\-|* set sum-|mus Pon- ti-|fex, ter- re-|na non ne\-|
 c4 =B2 A2 B6) B2 | c4 G4 G4 G4 | c12 A4 | c8 (d6 c2 | B8) A4 A4- | A4 F4 (G2 F2 G2 A2 | %55
w: * * * * tu-|it, sed ad coe-|le- sti-|a re\- *|* gna glo\-|* ri- o\- * * *|
 B2 A2 G2 F2 G8) | F4 c4 c8- | c8 c8 | z4 G4 A4 A4 | d12 c4 | B4 (B6 A2 G4) | %61
w: |sus mi- gra\-|* vit,|sed ad coe-|le- sti-|a re\- * *|
 (A2 G2 F2 E2 D4) A4- | A4 A4 c8 | G4 c8 c4 | (d2 c2 d2 _e2 f2 e2 d2 c2 | d8) c4 A4 | A16 | G16- | %68
w: gna * * * * glo\-|* ri- o-|sus, glo- ri-|o\- * * * * * * *|* sus mi-|gra-|vit.|
 G16 |] %69
w: |
V:4
 C,8 B,,8 | A,,8 G,,8 | F,,4 F,8 E,4 | F,8 z8 | z16 | z8 G,8 |[M:4/2] F,8 E,8 | D,8 C,4 G,4- | %8
w: Dum es-|set sum-|mus Pon- ti-|fex,||dum|es- set|sum- mus Pon\-|
 G,4 ^F,4 (G,4 =F,2 E,2 | D,8) z4 C,4 | G,8 A,8 | z8 z4 B,,4 | F,8 G,4 G,,4 | D,6 D,2 C,8 | %14
w: * ti- fex, * *|* ter-|re- na,|ter-|re- na non|me- tu- it,|
 z8 F,8 | _E,8 D,8 | C,8 B,,4 B,4- | B,4 A,4 B,8 | z8 z4 B,,4 | F,8 G,4 _E,4 | D,6 D,2 C,4 C,4 | %21
w: dum|es- set|sum- mus Pon-|* ti- fex,|ter-|re- na non|me- tu- it, ter-|
 G,8 A,4 F,4 | G,12 G,4 | C,16- | C,8 z8 | z16 | z16 | z4 F,8 D,4 | %28
w: re- na non|me- tu-|it,||||glo- ri-|
 (G,2 F,2 G,2 A,2 B,2 A,2 G,2 F,2 | G,8) F,4 F,4 | F,16 | C,8 z4 C,4 | C,4 C,4 F,8- | %33
w: o\- * * * * * * *|* sus mi-|gra-|vit, sed|ad coe- le\-|
 F,4 E,4 D,4 B,,4- | (B,,2 C,2 D,2 E,2 F,8) | (F,8 G,8) | z16 | z4 F,4 F,8 | C,16 | z16 | z16 | %41
w: * sti- a re\-||gna *||mi- gra-|vit.|||
 z16 | z16 | G,8 F,8 | E,8 D,8 | C,4 F,8 E,4 | F,4 C,4 G,8 | A,8 z4 C,4 | G,8 A,4 F,4 | G,12 G,4 | %50
w: ||Dum es-|set sum-|mus Pon- ti-|fex, ter- re-|na, ter-|re- na non|me- tu-|
 C,8 z4 C,4 | C,4 C,4 F,8- | F,4 E,4 D,4 (B,,4- | B,,2 C,2 D,2 E,2 F,8) | F,8 z8 | z16 | %56
w: it, sed|ad coe- le\-|* sti- a re\-||gna||
 z4 F,4 F,8- | F,8 C,4 C,4 | C,4 C,4 F,8- | F,4 D,4 F,8 | (G,6 F,2 _E,8) | D,8 z4 D,4- | %62
w: mi- gra\-|* vit ,sed|ad coe- le\-|* sti- a|re\- * *|gna glo\-|
 D,4 D,4 (C,2 B,,2 C,2 D,2) | (_E,2 D,2 C,2 B,,2 C,8) | B,,4 B,,4 B,,8- | B,,8 F,,4 F,4 | F,16 | %67
w: * ri- o\- * * *||sus mi- gra\-|* vit, mi-|gra-|
 C,16- | C,16 |] %69
w: vit.||

